!!!COM: Beethoven, Ludwig van
!!!CDT: 1770///-1827///
!!!OTL: Piano Sonata no. 10 in G major
!!!OPS: 14
!!!ONM: 2
!!!OMV: 2
!!!OMD: Andante
**kern	**kern	**dynam
*staff2	*staff1	*staff1/2
*>[A,B,B,C,D,D1,D,D2,E,F,F1,F,F2,G]	*>[A,B,B,C,D,D1,D,D2,E,F,F1,F,F2,G]	*>[A,B,B,C,D,D1,D,D2,E,F,F1,F,F2,G]
*>norep[A,B,C,D,D2,E,F,F2,G]	*>norep[A,B,C,D,D2,E,F,F2,G]	*>norep[A,B,C,D,D2,E,F,F2,G]
*>A	*>A	*>A
*clefF4	*clefG2	*clefG2
*k[]	*k[]	*k[]
*C:	*C:	*C:
*M4/4	*M4/4	*M4/4
*MM112	*MM112	*MM112
16r	16G/	p
=1	=1	=1
*^	*	*
8E'/ 8G'/	8C\	8c'/	.
8r	8r	8r	.
8F'/ 8G'/	8D'\	8B'/	.
8r	8r	8r	.
8G'/	8E'\	8c'/	.
8r	8r	8r	.
8G'/	8BB\	8d'/	.
8r	8r	8r	.
*v	*v	*	*
=2	=2	=2
8C'/	8G'/ 8c'/ 8e'/	.
8r	8r	.
8FF'/	8A'/ 8d'/ 8f'/	.
8r	8r	.
(4GG/	2B/ 2d/	.
8.G\L	.	.
16F\Jk	.	.
=3	=3	=3
8E'\)	8c'/ 8g'/	.
8r	8r	.
8D'\	8B'/ 8f'/ 8g'/	.
8r	8r	.
8C'/	8c'/ 8e'/ 8g'/	.
8r	8r	.
8BB'/	8d'/ 8e'/ 8g#'/	.
8r	8r	.
=4	=4	=4
8AA'/	8c'/ 8e'/ 8a'/	.
8r	8r	.
8FF'/	8c'/ 8f'/ 8a'/	.
8r	8r	.
2GG/	[4B/ [4d/	.
.	8.B/] 8.d/L]	.
.	16G/Jk	.
=5	=5	=5
*^	*	*
8E'/ 8G'/	8C'\	8c'/	.
8r	8r	8r	.
8F/ 8G/	8D'\	8B/	.
8r	8r	8r	.
2r	8E'\	8G'/ 8c'/	.
.	8r	8r	.
.	8BB'/	8G'/ 8d'/	.
.	8r	8r	.
*v	*v	*	*
=6	=6	=6
8C'/	8G'/ 8e'/	<
8r	8r	.
8AA'/ 8D'/	8c'/ 8f#'/	.
8r	8r	.
2BB/ 2D/	2d/ 2g/	.
=7	=7	=7
8C'\ 8G'\	8e'/ 8a'/	<
8r	8r	.
8C#'\ 8G'\	8e'/ 8b-'/	.
8r	8r	.
2D\ 2G\	2d/ 2bn/	.
=8	=8	=8
8D'\ 8A'\	8f#'/ 8cc'/	p
8r	8r	.
8D'\ 8c'\	8f#'/ 8a'/	.
8r	8r	.
8G'\ 8B'\	8g'/	.
8r	8r	.
8.r	8.r	.
=!|:	=!|:	=!|:
*>B	*>B	*>B
16r	16g/	.
*clefG2	*	*
=9	=9	=9
4e/ (4g/	4cc\ (4gg\	p
4d/ 4g/	4b\ 4ffn\	.
4c/ 4g/	4cc\ 4ee\)	.
4B-/ 4g/	4cc\ 4ee\	.
*clefF4	*	*
=10	=10	=10
.	(16ddq/LL	.
.	16eeq/JJ)	.
4A\ 4f\	4cc\ 4ccc\	.
4G\ 4e\	4cc\ 4bb-\	.
2F\ 2f\)	[4cc\ [4aa\	.
.	8.cc\] 8.aa\L]	.
.	16a\Jk	.
=11	=11	=11
4F\ 4c\	4a\ (4aa\	<
4E\ 4c#\	4a\ 4gg\	.
4D\ 4d\	4a\ 4ff\	.
4E\	4g\ 4cc#\ 4ee\	.
=12	=12	=12
4F\	4f/ 4a/ 4dd/	.
4F#\	4e-/ 4a/ [4ccn/	>
(4G\	4d/ 4g/ 4cc/]	.
*clefG2	*	*
(8.g/L)	4b/)	.
16fn/Jk	.	.
=13	=13	=13
8en'/)	8g'/ 8cc'/	p
8r	8r	.
8d'/	8f'/ 8g'/ 8b'/	.
8r	8r	.
8c'/	8e'/ 8g'/ 8cc'/	.
8r	8r	.
*clefF4	*	*
8BB'\ 8D'\ 8G'\ 8B'\	8d'/ 8g'/ 8dd'/	.
8r	8r	.
=14	=14	=14
*^	*^	*
2.r	8C'\ 8E'\ 8G'\ 8c'\	8e'/ 8g'/ 8cc'/ 8ee'/	2.r	.
.	8r	8r	.	.
.	8FF'\ 8AA'\ 8D'\ 8F'\	8f'/ 8a'/ 8dd'/ 8ff'/	.	.
.	8r	8r	.	.
.	8GG'\ 8BB'\ 8D'\ 8G'\	8d'/ 8g'/ 8b'/ 8dd'/	.	.
.	8r	8r	.	.
8r	8r	[4gg/	[4g\	f
8B/	8F\	.	.	.
=15	=15	=15	=15	=15
4c/	4E\	4gg/]	4g\]	.
[4c#/	4E\	([4gg/	4b-\	.
4c#/]	2F\	4gg/]	2a\	.
4d/	.	4ff/	.	.
*v	*v	*	*	*
*	*v	*v	*
=16	=16	=16
8G'\	8g'/ 8cc'/ 8ee'/)	p
8r	8r	.
8GG'/	8f'/ 8bn'/ 8dd'/	.
8r	8r	.
8C'/	8e'/ 8g'/ 8cc'/	.
8r	8r	.
4r	4r	.
=17	=17	=17
*^	*	*
4D/ 4F/	8GG'\	8B/	.
.	8r	8r	.
4E'/ 4G'/	8CC'\	8c'/	.
.	8r	8r	.
4E'/ 4G'/	8AA'\	8c#'/	.
.	8r	8r	.
4F'/ 4A'/	8DD'\	8d'/	.
.	8r	8r	.
*v	*v	*	*
=18	=18	=18
8BB\	8F#'/ 8A'/ 8d#'/	.
8r	8r	.
8EE'/	8G'/ 8B'/ 8e'/	.
8r	8r	.
2DD/ 2D/	[2G/ [2B/ [2fn/	.
=19	=19	=19
*^	*	*
(4CC\	4r	4G/] 4B/] (4f/]	p
4G/	4C\	4cn/ 4e/	.
4Fn/	4AA\	4c/ 4d/	.
4A/	4FF\)	4c/ 4f/)	.
=20	=20	=20	=20
8G'/	8GG'\	8c'/ 8e'/	.
8r	8r	8r	.
8F'/ 8B'/	8GGG\	8d'/	.
8r	8r	8r	.
8E'/ 8G'/	8CC'\	8c'/	.
8r	8r	8r	.
8.r	8.r	8.r	.
*v	*v	*	*
=:|!	=:|!	=:|!
*>C	*>C	*>C
16G\	16r	.
=21	=21	=21
4E\ (4c\	8r	.
.	4gg\	p
4F\ 4B\	.	.
.	4gg\	.
4E\ 4c\	.	.
.	4gg\	.
4B\ 4d\	.	.
.	[8gg\	.
=22	=22	=22
4c\ 4e\	8gg\]	.
.	4gg\	.
4d\ 4f\	.	.
.	4gg\	.
2B\ 2d\)	.	.
.	8gg\L	.
.	8gg\	.
.	8gg\J	.
*clefG2	*	*
=23	=23	=23
4e/ 4g/	8r	.
.	(4gg\	.
4d/ 4g/	.	.
.	4ff\	.
4c/ 4g/	.	.
.	4ee\	.
4B/ 4g#/	.	.
.	[8dd\	.
=24	=24	=24
*	*^	*
4A/ 4a/	8dd/]	4r	.
.	4cc/	.	.
*clefF4	*	*	*
4F\	.	4a\	.
.	8dd/	.	.
2G\	8cc/L	2d\	.
.	8b/	.	.
.	8a/	.	.
.	8g/J)	.	.
*	*v	*v	*
=25	=25	=25
4E\ (4c\	(8gg\	.
.	4gg\	.
4F\ 4B\	.	.
.	4gg\	.
4E\ 4c\	.	.
.	4gg\	.
4B\ 4d\	.	.
.	[8gg\)	.
*clefG2	*	*
=26	=26	=26
4c/ 4e/	8gg\L]	<
.	8ccc'\	.
4A/ 4f#/	8ccc'\	.
.	8ccc'\J	.
2B/ 2g/)	8ccc\L	.
.	8bb\	.
.	8aa\	.
.	8gg\J	.
=27	=27	=27
(4c/	8r	.
.	8eee'\L	.
4c#/ 4a#/	8eee'\	.
.	8eee'\J	.
2d/) 2b/	(8eee\L	.
.	8ddd\	.
.	8ccc#\	.
.	[8ddd\J)	.
=28	=28	=28
(4d/ 4ccn/	8ddd\L]	p
.	(8dd\	.
4d/ 4a/	8ee\	.
.	[8ff#\J)	.
2G/) 2g/	8ff#\L]	.
.	(8gg\	.
.	8dd\	.
.	8b\J)	.
=29	=29	=29
(4e/ 4g/	8r	.
.	4gg\	<
4d/ 4fn/	.	.
.	4gg\	.
4c/ 4e/	.	.
.	4gg\	.
4B-/) 4e/	.	.
.	[8gg\	.
*clefF4	*	*
=30!|:	=30!|:	=30!|:
*>D	*>D	*>D
*	*^	*
4A\ (4c\	8gg/]	4cc\	.
.	4ffn/	.	.
4G\ 4c\	.	4b-\	.
.	[8ee/	.	.
2F\ 2c\)	(8ee/L]	2a\	.
.	8ff/	.	.
.	8gg/	.	.
.	8gg#/J)	.	.
*	*v	*v	*
*clefG2	*	*
=31	=31	=31
(4f/ 4a/	(8aa\	.
.	4aa\	.
4c#/ 4g/	.	.
.	4aa\	.
4d/ 4f/	.	.
.	4aa\	.
4G/) 4e/	.	.
.	[8aa\)	.
*clefF4	*	*
=32	=32	=32
*^	*	*
4d/	4F\	(8aa\]	.
.	.	4ddd\)	.
4cn/	4F#\	.	.
.	.	[8dd\	.
4c/	2G\	8dd\]	.
.	.	(4gg\	.
4B/	.	.	.
.	.	16ff\LL	.
.	.	16dd\JJ	.
*v	*v	*	*
=33	=33	=33
4E\ 4c\	8cc\)	p
.	(4gg\	.
4F\ 4B\	.	.
.	4gg\	.
4E\ 4c\	.	.
.	4gg\	.
4B\ 4d\	.	.
.	[8gg\	.
=34	=34	=34
4c\ 4e\	8gg\]	.
.	4gg\	.
4d\ 4f\	.	.
.	4gg\	.
4B\ 4d\	.	.
.	4gg\)	.
*clefG2	*	*
4f/ 4g/	.	.
.	[8b\	<
=35	=35	=35
(4e/ 4g/	8b\]	.
.	4cc\	.
4B-/ 4g/	.	.
.	4cc#\	.
4A/ 4g/	.	.
.	4dd\	.
4A/) 4f/	.	.
.	[8aa\	.
*clefF4	*	*
=36	=36	=36
4G\ (4e\	8aa\]	p
.	4ccn\	.
4G\ 4d\	.	.
.	8b\	.
4C'\ 4c'\)	8cc\L	.
.	8g\	.
4r	8e\	.
.	8c\J	.
=37	=37	=37
*^	*	*
8r	(4GG\	8r	.
4D/ 4F/	.	(4B/	.
.	8CC\)	.	.
8E/ 8G/	8r	8c/)	.
8r	(4AA\	8r	.
4E/ 4G/	.	(4c#/	.
.	8DD\)	.	.
8F/ 8A/	8r	8d/)	.
=38	=38	=38	=38
8r	(4BB\	8r	.
4F#/ 4A/	.	(4d#/	.
.	8EE\)	.	.
8G/ 8B/	8r	8e/)	.
8r	2DD\ 2D\	8r	.
4G/ 4B/	.	4fn/	.
[8G/ [8B/	.	[8f/	.
=39	=39	=39	=39
8G/] 8B/]	(4CC\	8f/]	.
4G/ 4B/	.	4f/	.
.	4C\	.	.
4G/	.	4c/ 4e/	.
.	4AA\	.	.
4F/)	.	4c/ 4d/	.
.	4FF\	.	.
[8A/	.	[8c/ [8f/	.
*v	*v	*	*
=40	=40	=40
*>D1	*>D1	*>D1
*^	*	*
8A/]	(4GG\	8c/] 8f/]	p
4G/	.	4c/ 4e/	.
.	4GGG\	.	.
8F/ 8B/	.	8d/	.
4E/ 4G/	4CC\)	4c/	.
4r	4r	8r	.
.	.	8g/	.
*v	*v	*	*
*clefG2	*	*
=41	=41	=41
4e/ 4g/	(8gg\	<
.	4gg\	.
4d/ 4f/	.	.
.	4gg\	.
4c/ 4e/	.	.
.	4gg\)	.
4B-/ 4e/	.	.
.	(8gg\	.
*clefF4	*	*
=42:|!	=42:|!	=42:|!
*>D2	*>D2	*>D2
*^	*	*
8A/	(4GG\	8c/ 8f/)	p
4G/	.	4c/ 4e/	.
.	4GGG\	.	.
8F/ 8B/	.	8d/	.
4E/ 4G/	4CC\)	4c/	.
4r	4r	8r	.
.	.	8g/	.
*v	*v	*	*
=43	=43	=43
*>E	*>E	*>E
8C/	(8cc'/L	p
8e\	8g'/) 8cc'/J	.
8C/	8r	.
8d\	(8f'/ 8g'/ 8b'/	.
8C/	8r	.
8c\	8e'/ 8g'/ 8cc'/	.
8C/	8r	.
8B\	8f'/) 8g'/ 8dd'/	.
=44	=44	=44
8C/	8r	.
8B-\	(8g'/ 8cc'/ 8ee'/	.
8C/	8r	.
8A\	8f'/ 8cc'/ 8ff'/	.
8C/	8r	.
8A-\	8f'/ 8cc'/ 8dd'/	.
8C/	8r	.
8G\	8f'/) 8b'/ 8dd'/	.
=45	=45	=45
8CC/	8r	.
8F\	8g'\ 8b'\ 8dd'\ (8gg'\	.
8CC/	8r	.
8E\	8g'\ 8cc'\ 8gg'\	.
8CC/	8r	.
8D\	8b'\ 8ff'\ 8gg'\	.
8CC/	8r	.
8C/	8b-'\ 8ee'\ 8gg#'\)	.
=46	=46	=46
*	*^	*
8FF/	2r	8r	.
8F\	.	8a'\ 8ff'\ (8aa'\	.
8DD/	.	8r	.
8D\	.	8a'\ 8ff'\ 8aa'\)	.
8GG/	8r	8r	.
4.G\	4.bn/ 4.dd/	(4a-\	>
.	.	16g\LL	.
.	.	16f\JJ)	.
*	*v	*v	*
=47	=47	=47
8C/	8r	.
8e\	(8g'/ 8cc'/	p
8C/	8r	.
8d\	8f'/ 8g'/ 8b'/	.
8C/	8r	.
8c\	8e'/ 8g'/ 8cc'/	.
8BB/	8r	.
8B\	8d'/) 8g'/ 8dd'/	.
=48	=48	=48
8C/	8r	.
8c\	8e/ 8g/ 8cc/ 8ee/	.
8AA/	8r	.
8A\	8f#\ 8cc\ 8ee-\ 8ff#\	.
8BB/	8r	.
4B\ 4d\	4g\ 4dd\ 4gg\	.
8B\ 8d\	8g\ 8dd\ 8gg\	.
=49	=49	=49
8C/	8r	.
8c\	8a\ 8een\ 8gg\ 8aa\	f
8C#/	8r	.
8c#\	8b-\ 8ee\ 8gg\ 8bb-\	.
8D\	8r	.
4d\ 4g\	4bn\ 4dd\ 4gg\ 4bbn\	.
8d\ 8g\	8b\ 8dd\ 8gg\ 8bb\	.
=50	=50	=50
8D\	8r	.
8d\	8cc\ 8ff#\ 8ccc\	f
8D\	8r	.
8d\	8cc\ 8ff#\ 8aa\	.
4GG\ 4G\	8r	.
.	4gg\	.
4r	.	.
.	(24dd\LL	.
.	24b\	.
.	24g\JJ)	.
=51!|:	=51!|:	=51!|:
*>F	*>F	*>F
8G\	8r	.
8B-\ 8c#\ 8e\	8g'\ 8b-'\ 8cc#'\ (8gg'\	p
8G\	8r	.
8B-\ 8c#\ 8e\	8g'\ 8b-'\ 8cc#'\ 8ffn'\	.
8G\	8r	.
8B-\ 8c#\ 8e\	8g'\ 8b-'\ 8cc#'\ 8ee'\	.
8G\	8r	.
8B-\ 8cn\ 8e\	8g'\ 8b-'\ 8ccn'\ 8ee'\)	.
=52	=52	=52
8A\	8r	.
8c\ 8f\	8cc\ 8ff\ 8ccc\	.
8G\	8r	.
8c\ 8e\	8b-\ 8ee\ 8bb-\	.
8F\	8r	.
8c\ 8f\	8a\ 8cc\ 8ff\ 8aa\	.
8F\	8r	.
8c#\ 8f\	8a\ 8cc#\ 8ff\ 8aa\	.
=53	=53	=53
8F\	8r	.
8d\ 8f\	8a\ 8dd\ 8ff\ 8aa\	.
8F\	8r	.
8B-\ 8c#\ 8e\	8g\ 8b-\ 8cc#\ 8ee\ 8gg\	.
8F\	8r	.
8A\ 8d\	8f\ 8a\ 8dd\ 8ff\	.
8FF/	8r	.
8G\ 8B-\	8e\ 8g\ 8b-\ 8cc#\ 8ee\	.
=54	=54	=54
8FF/	8r	.
8F\ 8A\	8d/ 8f/ 8a/ 8dd/	f
8FF#/	8r	.
8F#\ 8A\	8cn/ 8e-/ 8f#/ 8a/ 8ccn/	.
8GG/	8r	.
4G\	4.Bn/ 4.d/ 4.g/ 4.bn/	.
(24Fn\LL	.	.
24E\	.	.
24D\JJ)	.	.
=55	=55	=55
8C/	8r	.
8c\	(8en'/ 8g'/ 8cc'/	p
8C/	8r	.
8d\	8f'/ 8g'/ 8b'/	.
8C/	8r	.
8c\	8e'/ 8g'/ 8cc'/	.
8C/	8r	.
8B\	8f'/) 8g'/ 8dd'/	.
=56	=56	=56
8C/	8r	.
8B-\	8g/ 8cc/ 8ee/	.
8C/	8r	.
8A\	8f/ 8cc/ 8ff/	.
8C/	8r	.
8A-\	8f/ 8cc/ 8dd/	.
8C/	8r	.
8G\	8f/ 8b/ 8dd/	.
=57	=57	=57
8F\	8r	.
8B\ 8d\	8g\ 8b\ 8dd\ 8gg\	.
8F\	8r	.
8B-\ 8c#\ 8e\	8g\ 8b-\ 8cc#\ 8gg\	.
8F\	8r	.
8B-\ 8c#\ 8e\	8g\ 8b-\ 8cc#\ 8gg\	.
8F\	8r	.
8A\ 8d\	8f\ 8a\ 8dd\ 8ff\	.
=58	=58	=58
8GG/	8r	.
8G\ 8c\	8e/ 8g/ 8ccn/ 8ee/	p
8GG/	8r	.
8G\ 8B\	8f/ 8g/ 8dd/	.
8C/	8r	.
8r	4cc\	.
4r	.	.
.	(24g/LL	.
.	24e/	.
.	24c/JJ)	.
=59	=59	=59
*^	*	*
8r	8GG\	8r	p
8D/ 8F/	8r	8B/	.
8r	8CC\	8r	.
8E/ 8G/	8r	8c/	.
8r	8AA\	8r	.
8E/ 8G/	8r	8c#/	.
8r	8DD\	8r	.
8F/ 8A/	8r	8d/	.
=60	=60	=60	=60
8r	8BB\	8r	.
8F#/ 8A/	8r	8d#/	.
8r	8EE\	8r	.
8G/ 8B/	8r	8e/	.
8r	2DD\ 2D\	8r	.
8G/ 8B/L	.	8fn/L	f
8G/ 8B/	.	8f/	.
8G/ 8B/J	.	8f/J	.
=61	=61	=61	=61
8r	8CC\	8r	.
8G/ 8B/	8r	8f/	.
8r	8C\	8r	.
8G'/	8r	8c'/ 8e'/	.
8r	8AA\	8r	.
8F/	8r	8c/ 8d/	.
8r	8FF\	8r	.
8A/	8r	8c/ 8f/	.
*v	*v	*	*
=62	=62	=62
*>F1	*>F1	*>F1
*^	*	*
8r	8GG\	8r	p
8G/	8r	8c/ 8e/	.
8r	8GGG\	8r	.
8F/ 8B/	8r	8d/	.
2r	8CC\	8r	.
.	8r	(8c/L	.
.	4r	8g/)	.
.	.	8g'/J	.
*v	*v	*	*
=63:|!	=63:|!	=63:|!
*>F2	*>F2	*>F2
*^	*	*
8r	8GG\	8r	p
8G/	8r	8c/ 8e/	.
8r	8GGG\	8r	.
8F/ 8B/	8r	8d/	.
2r	8CC\	8r	.
.	8r	8c/L	.
.	4r	.	.
*	*	*clefF4	*clefF4
.	.	8E/	.
.	.	8E/J	.
*v	*v	*	*
=64	=64	=64
*>G	*>G	*>G
8GG/	.	.
*	*clefG2	*clefG2
.	8r	.
8r	(8d'/ 8f'/ 8cc'/	.
8G\	8r	.
8r	8d/ 8f/ 8b/	.
8G\	8r	.
8r	8d'/ 8f'/ 8a-'/	.
8G\	8r	.
8r	8d'/) 8f'/ 8g'/	.
=65	=65	=65
8GG/	8r	.
8r	8cc'\ 8dd'\ (8ff'\	.
8G\	8r	.
8r	8b'\ 8dd'\ 8ff'\	.
8G\	8r	.
8r	8a-'\ 8dd'\ 8ff'\	.
8G\	8r	.
8r	8g'\ 8dd'\ 8ff'\)	.
=66	=66	=66
8GG/	8r	.
8r	8b'\ 8dd'\ (8aa-'\	>
8G\	8r	.
8r	8b'\ 8dd'\ 8gg'\	.
8G\	8r	.
8r	8b'\ 8dd'\ 8ff#'\	.
8G\	8r	.
8r	8b'\ 8dd'\ 8ffn'\	.
=67	=67	=67
8G\	8r	.
8r	8b-'\ 8dd'\ 8ff'\	pp
8G\	8r	.
8r	8an'\ 8dd'\ 8ff'\	.
8G\	8r	.
8r	8a-'\ 8dd'\ 8ff'\	.
8G\	8r	.
8r	8g'\ 8dd'\ 8ff'\)	.
=68	=68	=68
(4c\	16r	.
.	(16e/LL	p
.	16cc/	.
.	16g/JJ)	.
4d\	16r	.
.	(16f/LL	.
.	16bn/	.
.	16g/JJ)	.
4e\	16r	.
.	(16f#/LL	.
.	16cc/	.
.	16g/JJ)	.
4B\	16r	.
.	(16g/LL	.
.	16dd/	.
.	16g/JJ)	.
=69	=69	=69
4c\	16r	.
.	16g\LL	.
.	16ee\	.
.	16cc\JJ	.
4F\	16r	.
.	16a\LL	.
.	16ff\	.
.	16dd\JJ	.
4.G\	16r	.
.	16g\LL	.
.	16dd\	.
.	16b\JJ	.
.	16dd\LL	.
.	16b\	.
8F\)	16dd\	.
.	16b\JJ	.
=70	=70	=70
4E/	16r	.
.	(16g\LL	.
.	16gg\	.
.	16cc\JJ)	.
4D/	16r	.
.	(16g\LL	.
.	16gg\	.
.	16ff\JJ)	.
4C/	16r	.
.	(16g\LL	.
.	16gg\	.
.	16ee\JJ)	.
4BB/	16r	.
.	(16g#\LL	.
.	16gg#\	.
.	16dd\JJ)	.
=71	=71	=71
4AA/	16r	.
.	(16a\LL	.
.	16aa\	.
.	16cc\JJ)	.
4FF/	16r	.
.	(16a\LL	.
.	16aa\	.
.	16ff\JJ)	.
2GG/	(16dd\LL	.
.	16b\	.
.	16ff\	.
.	16dd\JJ	.
.	16b\LL	.
.	16g\	.
.	16f\	.
.	16d\JJ)	.
=72	=72	=72
(4C/	16r	.
.	(16e/LL	<
.	16cc/	.
.	16g/JJ)	.
4D/	16r	.
.	(16f/LL	.
.	16b/	.
.	16g/JJ)	.
4E/	16r	.
.	(16f#/LL	.
.	16cc/	.
.	16g/JJ)	.
4BB/	16r	.
.	(16d/LL	.
.	16dd/	.
.	16g/JJ)	.
=73	=73	=73
4C/	16r	.
.	16e/LL	.
.	16ee/	.
.	16g/JJ	.
4AA/	16r	.
.	16f#\LL	.
.	16ff#\	.
.	16cc\JJ	.
2BB/)	16r	.
.	16dd\LL	.
.	16gg\	.
.	16ff#\JJ	.
.	16gg\LL	.
.	16dd\	.
.	16b\	.
.	16g\JJ	.
=74	=74	=74
(4C/	16r	.
.	(16ee\LL	.
.	16aa\	.
.	16gg\JJ)	.
4C#/	16r	.
.	(16ee\LL	.
.	16aa#\	.
.	16gg\JJ)	.
2D/)	16r	.
.	(16gg\LL	.
.	16bb\	.
.	16aa#\JJ)	.
.	(16bb\LL	.
.	16gg\	.
.	16dd\	.
.	16b\JJ)	.
=75	=75	=75
(4DD/	(16dd\LL	p
.	16cc\	.
.	16ee\	.
.	16cc\JJ	.
4D/	16b\LL	.
.	16a\	.
.	16g\	.
.	16f#\JJ)	.
2GG/)	(16g\LL	.
.	16a\	.
.	16b\	.
.	16cc\JJ	.
.	16dd\LL	.
.	16ee\	.
.	16ffn\	.
.	16ff#\JJ)	.
=76	=76	=76
4e\	16r	.
.	(16g\LL	.
.	16gg\	.
.	16cc\JJ)	.
4d\	16r	.
.	(16g\LL	.
.	16ffn\	.
.	16b\JJ)	.
4c\	16r	.
.	(16g\LL	.
.	16ee\	.
.	16cc\JJ)	.
4B-\	16r	.
.	(16g\LL	.
.	16ee\	.
.	16cc\JJ)	.
=77	=77	=77
(4A\	16r	.
.	(16cc\LL	<
.	16ccc\	.
.	16ff\JJ)	.
4G\	16r	.
.	(16cc\LL	.
.	16bb-\	.
.	16ee\JJ)	.
2F\)	16r	.
.	(16cc\LL	>
.	16aa\	.
.	16ff\JJ	.
.	16aa\LL	.
.	16ff\	.
.	16aa\	.
.	16ff\JJ)	.
=78	=78	=78
(4F\	16r	.
.	(16a\LL	p
.	16aa\	.
.	16cc\JJ)	.
4E\	16r	.
.	(16a\LL	.
.	16gg\	.
.	16cc#\JJ)	.
4D\	16r	.
.	(16a\LL	.
.	16ff\	.
.	16dd\JJ)	.
4E\	16r	.
.	(16g\LL	.
.	16ee\	.
.	16cc#\JJ)	.
=79	=79	=79
4F\	16r	.
.	16f/LL	.
.	16dd/	.
.	16a/JJ	.
4F#\	16r	.
.	16e-/LL	.
.	16cc/	.
.	16a/JJ	.
4.G\	16r	.
.	16d/LL	>
.	16cc/	.
.	16g/JJ	.
.	16b/LL	.
.	16g/	.
8Fn\)	16d/	.
.	16g/JJ	.
=80	=80	=80
(4E/	16r	p
.	(16c/LL	.
.	16cc/	.
.	16g/JJ)	.
4D/	16r	.
.	(16f/LL	.
.	16b/	.
.	16g/JJ)	.
4C/	16r	.
.	(16e/LL	.
.	16cc/	.
.	16g/JJ)	.
4BB/	16r	.
.	(16d/LL	.
.	16dd/	.
.	16g/JJ)	.
=81	=81	=81
4C/	16r	.
.	16g\LL	.
.	16ee\	.
.	16cc\JJ	.
4FF/	16r	.
.	16a\LL	.
.	16ff\	.
.	16dd\JJ	.
4.GG/	16r	.
.	16g\LL	.
.	16dd\	.
.	16b\JJ	.
.	16dd\LL	.
.	16b\	.
8FF/)	16dd\	.
.	16b\JJ	.
=82	=82	=82
*^	*	*
(4EE/	2EE\	16r	.
.	.	(16g\LL	.
.	.	16gg\	.
.	.	16cc\JJ)	.
4E/	.	16r	.
.	.	(16b-\LL	.
.	.	16gg\	.
.	.	16cc#\JJ)	.
4FF/	2FF\	16r	.
.	.	16a\LL	.
.	.	16gg\	.
.	.	16cc#\JJ	.
4F/)	.	16r	.
.	.	(16a\LL	.
.	.	16ff\	.
.	.	16dd\JJ)	.
=83	=83	=83	=83
(4GG/	2GG\	16r	.
.	.	(16g/LL	.
.	.	16ee/	.
.	.	16ccn/JJ)	.
4G/	.	16r	.
.	.	(16f/LL	.
.	.	16dd/	.
.	.	16b/JJ)	.
4E/)	4C\	16r	>
.	.	(16e/LL	.
.	.	16cc/	.
.	.	16g/JJ	.
4r	4r	16f/LL	.
.	.	16e/	.
.	.	16d/	.
.	.	16c/JJ)	.
=84	=84	=84	=84
16r	(4GG\	1r	.
16D/LL	.	.	.
16B/	.	.	.
16F/JJ	.	.	.
16r	8CC\)	.	.
16E/LL	.	.	.
16c/	8r	.	.
16G/JJ	.	.	.
16r	(4AA\	.	.
16E/LL	.	.	.
16c#/	.	.	.
16G/JJ	.	.	.
16r	8DD\)	.	.
(16F/LL	.	.	.
16d/	8r	.	.
16A/JJ)	.	.	.
=85	=85	=85	=85
16r	(4BB\	2r	f
16F#/LL	.	.	.
16d#/	.	.	.
16A/JJ	.	.	.
16r	8EE\)	.	.
16G/LL	.	.	.
16e/	8r	.	.
16B/JJ	.	.	.
2r	2DDn\ 2Dn\	16r	f
.	.	(16G/LL	.
.	.	16fn/	.
.	.	(16B/JJ)	.
.	.	16f/LL	.
.	.	16B/	.
.	.	16f/	.
.	.	16B/JJ)	.
*v	*v	*	*
=86	=86	=86
(4CC/	16r	.
.	(16G/LL	>
.	16f/	.
.	16B/JJ)	.
4C/	16r	.
.	(16G/LL	.
.	16e/	.
.	16c/JJ)	.
4AA/	16r	.
.	(16F/LL	.
.	16d/	.
.	16c/JJ)	.
4FF/)	16r	.
.	(16A/LL	.
.	16f/	.
.	16c/JJ)	.
=87	=87	=87
(4GG/	16r	.
.	(16G/LL	p
.	16e/	.
.	16c/JJ)	.
4GGG/	16r	.
.	(16F/LL	.
.	16d/	.
.	16B/JJ)	.
8CC/)	16r	.
.	(16c/LL	<
8r	16d/	.
.	16e/JJ	.
4r	16f/LL	.
.	16g/	.
.	16a/	.
.	16b/JJ)	.
=88	=88	=88
8c'\ 8e'\	8g'/ 8cc'/	p
8r	8r	.
8d'\ 8f'\	8g'/ 8b'/	.
8r	8r	.
8e'\	8g'/ 8cc'/	.
8r	8r	.
8B'\ 8f'\	8g'/ 8dd'/	.
8r	8r	.
=89	=89	=89
8c'\ 8e'\	8g'\ 8ee'\	.
8r	8r	.
8F'\ 8d'\	8a'\ 8ff'\	.
8r	8r	.
8G'\ 8B'\	8g'\ 8dd'\	.
8r	8r	.
4r	4r	.
*clefG2	*	*
=90	=90	=90
8e'/ 8g'/	8gg'\	pp
8r	8r	.
8d'/ 8g'/	8ff'\ 8gg'\	.
8r	8r	.
8c'/ 8g'/	8ee'\ 8gg'\	.
8r	8r	.
8B'/ 8e'/	8dd'\ 8gg#'\	.
8r	8r	.
=91	=91	=91
8A'/ 8e'/	8cc'\ 8aa'\	.
8r	8r	.
4r	4r	.
*clefF4	*	*
8FF'/ 8AA'/ 8D'/ 8F'/	8A'/ 8d'/ 8f'/	.
8r	8r	.
4r	4r	.
=92	=92	=92
8G'\ 8c'\ 8e'\	8g'\ 8cc'\ 8ee'\	.
8r	8r	.
4r	4r	.
8GG'/ 8BB'/ 8D'/ 8F'/	8B'/ 8d'/	pp
8r	8r	.
4r	4r	.
=93	=93	=93
4CC/ 4EE/ 4GG/ 4C/	4cc\ 4ee\ 4gg\ 4ccc\	ff
4r	4r	.
4r	4r	.
8.r	8.r	.
==	==	==
*-	*-	*-
!!!ENC: Craig Stuart Sapp
!!!END: 2004/11/11/
